images/svg/Logo4.svg

<svg width="106" height="60" viewBox="0 0 106 60" fill="none" xmlns="http://www.w3.org/2000/svg">
<path d="M53.425 27.4081C52.9819 26.8183 52.7699 26.1212 52.8203 25.4195V22.5363C52.8203 21.6525 53.0207 20.9808 53.4216 20.5213C53.8224 20.0618 54.511 19.833 55.4871 19.835C56.4044 19.835 57.0555 20.0305 57.4405 20.4216C57.8605 20.9206 58.0648 21.5307 58.018 22.1462V22.8238H56.3772V22.1374C56.383 21.9128 56.3671 21.6881 56.3296 21.4657C56.306 21.3137 56.2234 21.1731 56.0952 21.0669C55.9267 20.9523 55.7145 20.8968 55.5007 20.9114C55.2759 20.8969 55.0529 20.9555 54.8756 21.0757C54.7327 21.1933 54.6374 21.3476 54.6038 21.5156C54.5567 21.7509 54.5351 21.9896 54.5393 22.2283V25.7275C54.5134 26.065 54.5858 26.4028 54.7499 26.71C54.8315 26.814 54.9448 26.8964 55.0774 26.9482C55.2099 26.9999 55.3564 27.019 55.5007 27.0034C55.7109 27.0183 55.9195 26.9614 56.0816 26.845C56.2153 26.7304 56.3013 26.5809 56.3262 26.4197C56.3645 26.1875 56.3816 25.9531 56.3772 25.7187V25.0089H58.018V25.6571C58.0641 26.2986 57.8648 26.9355 57.4507 27.4697C57.0736 27.8979 56.4315 28.112 55.4871 28.112C54.5427 28.112 53.8292 27.8833 53.425 27.4081Z" fill="#AFB1B8"/>
<path d="M60.2569 27.4374C59.8425 26.9887 59.6353 26.3346 59.6353 25.4694V22.4366C59.6353 21.5801 59.8425 20.9319 60.2569 20.492C60.6714 20.052 61.3644 19.833 62.336 19.835C63.3008 19.835 63.9904 20.054 64.4049 20.492C64.8193 20.9319 65.03 21.5801 65.03 22.4366V25.4694C65.03 26.3258 64.8193 26.9828 64.3981 27.4345C63.9768 27.8862 63.2906 28.112 62.336 28.112C61.3814 28.112 60.6748 27.8833 60.2569 27.4374ZM63.1004 26.71C63.2488 26.4289 63.3164 26.121 63.2974 25.8125V22.0993C63.3165 21.7968 63.25 21.4948 63.1038 21.2194C63.0205 21.1132 62.9044 21.0295 62.7686 20.9776C62.6329 20.9257 62.483 20.9079 62.336 20.9261C62.1886 20.9083 62.0384 20.9264 61.9022 20.9782C61.766 21.03 61.6492 21.1135 61.5648 21.2194C61.4155 21.494 61.3477 21.7964 61.3678 22.0993V25.8301C61.3472 26.1387 61.4148 26.447 61.5648 26.7276C61.6605 26.8223 61.7785 26.8981 61.9109 26.95C62.0434 27.002 62.1872 27.0289 62.3326 27.0289C62.4781 27.0289 62.6219 27.002 62.7543 26.95C62.8867 26.8981 63.0047 26.8223 63.1004 26.7276V26.71Z" fill="#AFB1B8"/>
<path d="M67.0035 19.9236H68.7701L70.0984 25.5192L71.4573 19.9236H73.1763L73.3496 28.0003H72.079L71.9431 22.3871L70.6318 28.0003H69.6126L68.2537 22.3665L68.128 28.0003H66.8439L67.0035 19.9236Z" fill="#AFB1B8"/>
<path d="M75.3303 19.9236H78.082C79.6673 19.9236 80.46 20.688 80.46 22.217C80.46 23.6814 79.6254 24.4126 77.9563 24.4106H77.0187V28.0003H75.3201L75.3303 19.9236ZM77.6811 23.3754C77.8489 23.3938 78.0194 23.3805 78.1807 23.3364C78.342 23.2924 78.4903 23.2186 78.6153 23.1203C78.8101 22.8475 78.896 22.5271 78.8599 22.2082C78.8688 21.9618 78.8414 21.7154 78.7784 21.475C78.7542 21.3947 78.7117 21.3194 78.6533 21.2534C78.595 21.1874 78.522 21.1322 78.4387 21.0908C78.2029 20.9932 77.9422 20.9488 77.6811 20.9618H77.0221V23.3754H77.6811Z" fill="#AFB1B8"/>
<path d="M82.9094 19.9236H84.7337L86.6056 28.0003H85.0225L84.6522 26.138H83.0249L82.6445 28.0003H81.0376L82.9094 19.9236ZM84.4687 25.2025L83.8335 21.8123L83.1982 25.2025H84.4687Z" fill="#AFB1B8"/>
<path d="M88.1173 19.9236H89.3063L91.5825 24.5309V19.9236H92.9923V28.0003H91.861L89.5713 23.1906V28.0003H88.1139L88.1173 19.9236Z" fill="#AFB1B8"/>
<path d="M96.2945 24.9207L94.4022 19.9348H95.9955L97.1506 23.1375L98.2343 19.9348H99.7936L97.9251 24.9207V28.0002H96.2945V24.9207Z" fill="#AFB1B8"/>
<path d="M56.0477 31.5315V31.9538H54.6617V35.2358H54.0807V31.9538H52.6879V31.5315H56.0477Z" fill="#AFB1B8"/>
<path d="M60.3927 35.2361H59.9442C59.8987 35.2385 59.8538 35.2259 59.8185 35.2009C59.7846 35.1794 59.7587 35.1498 59.7438 35.1158L59.3429 34.236H57.4201L57.0192 35.1158C57.0078 35.1526 56.9869 35.1867 56.958 35.2155C56.9225 35.2401 56.8778 35.2526 56.8324 35.2507H56.3839L58.0825 31.5466H58.6737L60.3927 35.2361ZM57.5797 33.8606H59.1833L58.5038 32.3531C58.4537 32.2391 58.4117 32.1226 58.3781 32.0041C58.3543 32.0745 58.3339 32.142 58.3136 32.2006L58.2524 32.3561L57.5797 33.8606Z" fill="#AFB1B8"/>
<path d="M63.3212 34.8724C63.4275 34.8772 63.5341 34.8772 63.6405 34.8724C63.7323 34.8642 63.8232 34.8495 63.9123 34.8284C63.9955 34.8107 64.0772 34.7882 64.1569 34.7609C64.2316 34.7345 64.3064 34.7022 64.3845 34.67V33.8369H63.705C63.6882 33.8378 63.6714 33.8356 63.6556 33.8305C63.6399 33.8255 63.6255 33.8177 63.6133 33.8076C63.6022 33.7993 63.5933 33.7889 63.5875 33.7772C63.5816 33.7655 63.5788 33.7529 63.5794 33.7401V33.4556H64.8975V34.8753C64.7899 34.9417 64.6763 35.0006 64.5577 35.0513C64.4366 35.1029 64.3104 35.1451 64.1807 35.1774C64.0417 35.2127 63.8997 35.2382 63.756 35.2537C63.5913 35.2695 63.4257 35.2773 63.26 35.2771C62.967 35.2793 62.6763 35.2325 62.4039 35.1393C62.1496 35.051 61.9185 34.9193 61.7245 34.7521C61.5353 34.5832 61.3864 34.3839 61.2862 34.1655C61.1792 33.9199 61.1261 33.6593 61.13 33.397C61.1264 33.133 61.1782 32.8706 61.2828 32.6226C61.3805 32.4031 61.5297 32.2033 61.7211 32.036C61.9149 31.8693 62.1461 31.7386 62.4005 31.6517C62.6914 31.5572 63.0002 31.5105 63.311 31.5138C63.4691 31.5137 63.627 31.5245 63.7832 31.5461C63.9213 31.5655 64.0567 31.597 64.1875 31.64C64.3063 31.6785 64.4202 31.7277 64.5272 31.7866C64.6313 31.8445 64.7301 31.9092 64.8227 31.9802L64.6597 32.209C64.6469 32.2299 64.6279 32.2475 64.6046 32.2598C64.5813 32.2722 64.5545 32.279 64.5272 32.2794C64.4896 32.2784 64.4531 32.2682 64.4219 32.2501C64.3709 32.2266 64.3165 32.1973 64.2554 32.1621C64.1832 32.123 64.107 32.0896 64.0278 32.0624C63.9265 32.0273 63.822 31.9998 63.7152 31.9802C63.5729 31.9576 63.4285 31.9468 63.2838 31.948C63.0597 31.9458 62.8371 31.9807 62.6281 32.0506C62.4391 32.1161 62.2687 32.2162 62.1287 32.3439C61.9879 32.4771 61.8804 32.6339 61.8128 32.8045C61.661 33.2056 61.661 33.6381 61.8128 34.0393C61.8871 34.2135 62.0029 34.3724 62.1525 34.5057C62.2918 34.6328 62.4609 34.7328 62.6485 34.799C62.8645 34.8631 63.0935 34.888 63.3212 34.8724Z" fill="#AFB1B8"/>
<path d="M68.7363 34.8134H70.5912V35.2358H68.1689V31.5315H68.7499L68.7363 34.8134Z" fill="#AFB1B8"/>
<path d="M72.5208 35.2358H71.9398V31.5315H72.5208V35.2358Z" fill="#AFB1B8"/>
<path d="M74.6814 31.5491C74.7159 31.5661 74.746 31.5891 74.7697 31.6166L77.253 34.4089C77.2497 34.3649 77.2497 34.3209 77.253 34.2769C77.253 34.2358 77.253 34.1948 77.253 34.1566V31.5168H77.7592V35.236H77.4671C77.4238 35.2391 77.3804 35.232 77.3414 35.2155C77.3061 35.197 77.275 35.1732 77.2496 35.1451L74.7697 32.3557C74.7697 32.3997 74.7697 32.4408 74.7697 32.4818C74.7697 32.5229 74.7697 32.561 74.7697 32.5962V35.236H74.2839V31.5315H74.5863C74.6191 31.5316 74.6515 31.5376 74.6814 31.5491Z" fill="#AFB1B8"/>
<path d="M82.0364 31.5315V31.9392H79.9777V33.1622H81.6457V33.5553H79.9777V34.8194H82.0364V35.2271H79.3798V31.5315H82.0364Z" fill="#AFB1B8"/>
<path d="M21.1618 8.65538L46.9568 14.9787V37.1367L21.1618 30.8163V8.65538ZM19.5073 6.7666V31.8927L48.6079 39.0284V13.9053L19.5073 6.7666Z" fill="#AFB1B8"/>
<path d="M35.1039 50.6921L6 43.5504V18.427L35.1039 25.5657V50.6921Z" fill="#AFB1B8"/>
<path d="M19.9897 8.37086L45.4484 14.6149L34.6215 23.9648L9.1594 17.7178L19.9897 8.37086ZM19.5073 6.7666L6 18.4276L35.1039 25.5661L48.6078 13.9051L19.5073 6.7666Z" fill="#AFB1B8"/>
<path d="M36.7415 49.2786L48.6078 39.0314L36.7415 36.1191V49.2786Z" fill="#AFB1B8"/>
</svg>

<svg width="106" height="60" fill="none" xmlns="http://www.w3.org/2000/svg"><path d="M53.425 27.408a2.947 2.947 0 0 1-.605-1.989v-2.883c0-.884.2-1.555.602-2.015.4-.46 1.089-.688 2.065-.686.917 0 1.569.195 1.953.587.42.499.625 1.109.578 1.724v.678h-1.64v-.687c.005-.224-.01-.449-.048-.671a.65.65 0 0 0-.235-.4.948.948 0 0 0-.594-.155 1.005 1.005 0 0 0-.625.165.768.768 0 0 0-.272.44 3.33 3.33 0 0 0-.065.712v3.5c-.026.337.047.675.21.982a.77.77 0 0 0 .328.238c.133.052.28.071.424.055a.893.893 0 0 0 .58-.158.704.704 0 0 0 .245-.425 3.86 3.86 0 0 0 .051-.701v-.71h1.641v.648a2.64 2.64 0 0 1-.567 1.813c-.377.428-1.02.642-1.964.642s-1.658-.229-2.062-.704ZM60.257 27.437c-.414-.448-.622-1.102-.622-1.968v-3.032c0-.857.208-1.505.622-1.945.414-.44 1.107-.659 2.079-.657.965 0 1.654.219 2.069.657.414.44.625 1.088.625 1.945v3.032c0 .857-.21 1.514-.632 1.965-.421.452-1.107.678-2.062.678-.955 0-1.661-.229-2.08-.675Zm2.843-.727c.149-.281.216-.589.197-.898V22.1a1.649 1.649 0 0 0-.193-.88.775.775 0 0 0-.335-.241.905.905 0 0 0-.433-.052.917.917 0 0 0-.434.052.787.787 0 0 0-.337.241c-.15.275-.217.577-.197.88v3.731c-.02.309.047.617.197.898.096.094.214.17.346.222a1.157 1.157 0 0 0 .843 0 1.02 1.02 0 0 0 .346-.222v-.018ZM67.004 19.924h1.766l1.328 5.595 1.36-5.595h1.718L73.35 28h-1.271l-.136-5.613L70.632 28h-1.02l-1.358-5.634L68.128 28h-1.284l.16-8.076ZM75.33 19.924h2.752c1.585 0 2.378.764 2.378 2.293 0 1.464-.835 2.196-2.504 2.194h-.937V28H75.32l.01-8.077Zm2.351 3.451c.168.019.338.006.5-.039.161-.044.31-.117.434-.216.195-.273.281-.593.245-.912a2.529 2.529 0 0 0-.082-.733.593.593 0 0 0-.125-.222.703.703 0 0 0-.214-.162 1.76 1.76 0 0 0-.758-.13h-.659v2.414h.66ZM82.91 19.924h1.824L86.606 28h-1.584l-.37-1.862h-1.627L82.645 28h-1.607l1.871-8.076Zm1.559 5.279-.635-3.39-.636 3.39h1.27ZM88.117 19.924h1.19l2.275 4.607v-4.607h1.41V28h-1.131l-2.29-4.81V28h-1.457l.003-8.076ZM96.294 24.92l-1.892-4.985h1.594l1.155 3.203 1.083-3.203h1.56l-1.869 4.986V28h-1.63v-3.08ZM56.048 31.532v.422h-1.386v3.282h-.581v-3.282h-1.393v-.422h3.36ZM60.393 35.236h-.449a.2.2 0 0 1-.126-.035.194.194 0 0 1-.074-.085l-.401-.88H57.42l-.4.88a.242.242 0 0 1-.062.1.206.206 0 0 1-.126.035h-.448l1.699-3.704h.59l1.72 3.69Zm-2.813-1.375h1.603l-.68-1.508a2.694 2.694 0 0 1-.125-.349c-.024.07-.044.138-.064.197l-.062.155-.672 1.505ZM63.321 34.872c.107.005.213.005.32 0 .091-.008.182-.023.271-.044a2.11 2.11 0 0 0 .245-.067c.075-.027.15-.059.228-.091v-.833h-.68a.137.137 0 0 1-.092-.03.086.086 0 0 1-.026-.03.074.074 0 0 1-.008-.037v-.284h1.318v1.42a2.573 2.573 0 0 1-.716.301c-.14.036-.281.061-.425.077a5.13 5.13 0 0 1-.496.023 2.59 2.59 0 0 1-.856-.138 2.09 2.09 0 0 1-.68-.387 1.79 1.79 0 0 1-.438-.587 1.851 1.851 0 0 1-.156-.768 1.921 1.921 0 0 1 .153-.774 1.7 1.7 0 0 1 .438-.587c.194-.167.425-.297.68-.384.29-.095.6-.142.91-.138.158 0 .316.01.472.032.138.02.274.051.404.094.12.038.233.088.34.147.104.058.203.122.296.193l-.163.229a.142.142 0 0 1-.055.05.17.17 0 0 1-.078.02.222.222 0 0 1-.105-.029 2.096 2.096 0 0 1-.167-.088 1.504 1.504 0 0 0-.227-.1 2.128 2.128 0 0 0-.313-.082 2.613 2.613 0 0 0-.431-.032 2.01 2.01 0 0 0-.656.103 1.44 1.44 0 0 0-.5.293 1.29 1.29 0 0 0-.315.46 1.731 1.731 0 0 0 0 1.235c.074.175.19.333.34.467.139.127.308.227.495.293.216.064.445.089.673.073ZM68.736 34.813h1.855v.423H68.17v-3.704h.58l-.013 3.281ZM72.52 35.236h-.58v-3.704h.58v3.704ZM74.681 31.55a.28.28 0 0 1 .089.067l2.483 2.792a.881.881 0 0 1 0-.132V31.517h.506v3.719h-.292a.274.274 0 0 1-.126-.02.33.33 0 0 1-.091-.07l-2.48-2.79v2.88h-.486v-3.704h.302c.033 0 .066.006.095.017ZM82.036 31.532v.407h-2.058v1.223h1.668v.393h-1.668v1.264h2.058v.408H79.38v-3.695h2.656ZM21.162 8.655l25.795 6.324v22.158l-25.795-6.32V8.654Zm-1.655-1.888v25.126l29.1 7.135V13.905l-29.1-7.138Z" fill="#AFB1B8"/><path d="M35.104 50.692 6 43.55V18.427l29.104 7.139v25.126Z" fill="#AFB1B8"/><path d="m19.99 8.37 25.458 6.245-10.827 9.35L9.16 17.718 19.99 8.37Zm-.483-1.603L6 18.427l29.104 7.14 13.504-11.662-29.1-7.138ZM36.742 49.279 48.608 39.03 36.742 36.12v13.16Z" fill="#AFB1B8"/></svg>
